symbolic/24x24/apps/renoise.svg

<svg xmlns="http://www.w3.org/2000/svg" width="24" height="24" version="1.1">
 <path style="opacity:0.2" d="M 12.41606,2.5012634 C 11.971462,2.4858003 11.563877,2.6126076 11.290103,2.8967713 8.3414575,6.312375 5.4674725,9.6813705 2.5754098,13.110639 2.0976162,13.685302 1.7533887,14.342863 2.22483,15.096967 c 1.4255465,2.296717 2.7680303,4.576581 4.298754,7.013671 0.2829485,0.424978 1.1747365,0.61282 1.7909845,-0.01856 C 12.586242,17.82091 17.00314,13.394417 21.578987,8.84599 22.135272,8.2942235 22.206571,7.0253735 21.387584,6.5969665 20.5686,6.1685685 14.258573,3.1897278 13.473659,2.7873963 13.130259,2.6113799 12.761862,2.5132712 12.41606,2.5012634 Z"/>
 <path style="fill:#a54923" d="M 12.41606,2.0012609 C 11.971462,1.9857977 11.563877,2.1126051 11.290103,2.3967687 8.3414575,5.8123725 5.4674725,9.181368 2.5754098,12.610636 2.0976162,13.185299 1.7533887,13.84286 2.22483,14.596964 c 1.4255465,2.296718 2.7680303,4.576581 4.298754,7.013672 0.2829485,0.424977 1.1747365,0.612819 1.7909845,-0.01855 C 12.586242,17.320907 17.00314,12.894415 21.578987,8.3459875 22.135272,7.794221 22.206571,6.525371 21.387584,6.096964 20.5686,5.668566 14.258573,2.6897252 13.473659,2.2873937 13.130259,2.1113773 12.761862,2.0132686 12.41606,2.0012609 Z"/>
 <path style="opacity:0.2" d="m 9.5273438,10.5 c -0.053699,-1.22e-4 -0.1084201,0.0025 -0.1640626,0.0078 -0.890313,0.08669 -3.3730468,0.339844 -3.3730468,0.339844 L 5.90625,12.265625 c 0,0 1.344487,-0.103344 1.625,-0.117187 0.280514,-0.01386 0.4655739,0.204872 0.4667969,0.43164 0.0013,0.226773 0.00648,0.662921 0.00781,0.888672 C 8.0071569,13.694504 7.7957607,14 7.5351537,14 7.2745512,14 5.82031,14.04297 5.82031,14.04297 l -0.09375,1.460937 c 0,0 1.414879,0.0022 1.6953125,0.0078 0.2804345,0.0055 0.4971731,0.23285 0.4863281,0.513672 -0.01085,0.280822 -0.1171875,3.203125 -0.1171875,3.203125 L 10.910156,19.5 c 0.02934,-0.02935 0.06049,-0.06048 0.08984,-0.08984 -0.0036,-0.171751 -0.06525,-2.984982 -0.07813,-3.716797 -0.0129,-0.731965 -0.591797,-1.105468 -0.591797,-1.105468 0,0 0.686545,-0.598079 0.660156,-1.201172 -0.02637,-0.603094 -0.0451,-0.824697 -0.06445,-1.574219 C 10.907637,11.109827 10.33279,10.501877 9.5273438,10.5 Z m -3.984375,0.425781 -1.1816407,0.09375 c -0.2822374,0.333097 -0.569256,0.664118 -0.8515625,0.998047 l -0.4023437,4.519531 c 0.4621416,0.756731 0.9501161,1.543495 1.4160156,2.310547 l 0.5429687,0.05078 z"/>
 <path style="fill:#ffffff" d="M 9.5273438 10 C 9.4736448 9.9998775 9.4189237 10.002512 9.3632812 10.007812 C 8.4729682 10.094503 5.9902344 10.347656 5.9902344 10.347656 L 5.90625 11.765625 C 5.90625 11.765625 7.250737 11.662281 7.53125 11.648438 C 7.811764 11.634578 7.9968239 11.85331 7.9980469 12.080078 C 7.9993469 12.306851 8.0045294 12.742999 8.0058594 12.96875 C 8.0071594 13.194504 7.7957632 13.5 7.5351562 13.5 C 7.2745537 13.5 5.8203125 13.542969 5.8203125 13.542969 L 5.7265625 15.003906 C 5.7265625 15.003906 7.1414415 15.006119 7.421875 15.011719 C 7.7023095 15.017219 7.9190481 15.244569 7.9082031 15.525391 C 7.8973531 15.806213 7.7910156 18.728516 7.7910156 18.728516 L 10.910156 19 C 10.939499 18.970646 10.970644 18.939524 11 18.910156 C 10.9964 18.738405 10.934755 15.925174 10.921875 15.193359 C 10.908975 14.461394 10.330078 14.087891 10.330078 14.087891 C 10.330078 14.087891 11.016623 13.489812 10.990234 12.886719 C 10.963864 12.283625 10.945131 12.062022 10.925781 11.3125 C 10.907637 10.609827 10.33279 10.001877 9.5273438 10 z M 5.5429688 10.425781 L 4.3613281 10.519531 C 4.0790907 10.852628 3.7920721 11.183649 3.5097656 11.517578 L 3.1074219 16.037109 C 3.5695635 16.79384 4.057538 17.580604 4.5234375 18.347656 L 5.0664062 18.398438 L 5.5429688 10.425781 z"/>
 <path style="opacity:0.1;fill:#ffffff" d="M 12.416016,2.0009765 C 11.971418,1.9855134 11.563813,2.1123207 11.290039,2.3964844 8.3413935,5.812088 5.467258,9.1810835 2.5751953,12.610352 2.2021347,13.059048 1.9167658,13.558966 2.03125,14.115235 2.1043289,13.755124 2.3176252,13.420142 2.5751953,13.110352 5.467258,9.6810835 8.3413935,6.312088 11.290039,2.8964844 c 0.273774,-0.2841637 0.681379,-0.410971 1.125977,-0.3955079 0.345802,0.012008 0.714217,0.1101165 1.057617,0.2861329 0.784914,0.4023315 7.095078,3.3811721 7.914062,3.8095701 0.35783,0.187179 0.537139,0.536891 0.588867,0.9150395 C 22.063819,6.9657205 21.901785,6.3655975 21.387695,6.0966795 20.568711,5.6682815 14.258547,2.6894409 13.473633,2.2871094 13.130233,2.111093 12.761817,2.0129843 12.416016,2.0009765 Z"/>
</svg>

<svg xmlns="http://www.w3.org/2000/svg" width="24" height="24"><path style="opacity:.2" d="M12.416 2.501c-.445-.015-.852.112-1.126.396A1157.502 1157.502 0 0 0 2.575 13.11c-.477.574-.822 1.232-.35 1.986 1.425 2.297 2.768 4.577 4.299 7.014.283.425 1.174.612 1.79-.019 4.272-4.271 8.69-8.698 13.265-13.246.556-.552.628-1.82-.191-2.249-.82-.428-7.13-3.407-7.914-3.81a2.545 2.545 0 0 0-1.058-.286z"/><path style="fill:#a54923" d="M12.416 2.001c-.445-.015-.852.112-1.126.396A1157.51 1157.51 0 0 0 2.575 12.61c-.477.574-.822 1.232-.35 1.986 1.425 2.297 2.768 4.577 4.299 7.014.283.425 1.174.612 1.79-.019 4.272-4.271 8.69-8.698 13.265-13.246.556-.552.628-1.82-.191-2.249-.82-.428-7.13-3.407-7.914-3.81a2.545 2.545 0 0 0-1.058-.286z"/><path style="opacity:.2" d="M9.527 10.5a1.69 1.69 0 0 0-.164.008c-.89.086-3.373.34-3.373.34l-.084 1.418s1.345-.104 1.625-.118a.436.436 0 0 1 .467.432c.001.227.007.663.008.889.001.226-.21.531-.47.531-.261 0-1.716.043-1.716.043l-.093 1.46s1.414.003 1.695.009c.28.005.497.233.486.513l-.117 3.204 3.12.271c.028-.03.06-.06.089-.09-.004-.172-.065-2.985-.078-3.717-.013-.732-.592-1.105-.592-1.105s.687-.598.66-1.201c-.026-.603-.045-.825-.064-1.574-.018-.703-.593-1.311-1.399-1.313zm-3.984.426-1.182.094c-.282.333-.569.664-.851.998l-.403 4.52c.463.756.95 1.543 1.416 2.31l.543.05z"/><path style="fill:#fff" d="M9.527 10a1.69 1.69 0 0 0-.164.008c-.89.087-3.373.34-3.373.34l-.084 1.418s1.345-.104 1.625-.118a.436.436 0 0 1 .467.432c.001.227.007.663.008.889.001.226-.21.531-.47.531-.261 0-1.716.043-1.716.043l-.093 1.46s1.414.003 1.695.009c.28.005.497.233.486.513l-.117 3.204 3.12.271c.028-.03.06-.06.089-.09-.004-.172-.065-2.985-.078-3.717-.013-.732-.592-1.105-.592-1.105s.687-.598.66-1.201c-.026-.603-.045-.825-.064-1.575-.018-.702-.593-1.31-1.399-1.312zm-3.984.426-1.182.094c-.282.333-.569.664-.851.998l-.403 4.52c.463.756.95 1.543 1.416 2.31l.543.05.477-7.972z"/><path style="opacity:.1;fill:#fff" d="M12.416 2.001c-.445-.015-.852.111-1.126.395A1157.522 1157.522 0 0 0 2.575 12.61c-.373.449-.658.949-.544 1.505.073-.36.287-.695.544-1.005C5.467 9.681 8.341 6.312 11.29 2.896c.274-.284.681-.41 1.126-.395.346.012.714.11 1.058.286.785.402 7.095 3.381 7.914 3.81.358.187.537.537.589.915.087-.546-.075-1.146-.59-1.415-.818-.429-7.128-3.408-7.913-3.81a2.545 2.545 0 0 0-1.058-.286z"/></svg>
